X:20015
T:Tripping Up the Stairs
T:Tripping Upstairs
R:Jig
C:Trad.
O:Ireland
M:6/8
L:1/8
Q:1/8=220
K:D
AG|"D"FAA "G"GBB|"D"Add fed|"A"c>Bc ABc|"D"dfe "G"dAG|
"D"FAA "G"GBB|"D"Add fed|"A"c>Bc ABc|"D"dfe d:|
|:Bc|"Bm"dBB fBB|f>gf fed|"A"cAA eAA|e>fe edc|
"Bm"dBB fBB|f>gf fed|"A"c>Bc ABc|"D"dfe d:|

